packages/radix-icons/outline/15/cube.svg

<svg width="15" height="15" fill="none" xmlns="http://www.w3.org/2000/svg">
  <path
    fill-rule="evenodd"
    clip-rule="evenodd"
    d="M7.27639 1.05279C7.41716 0.982404 7.58284 0.982404 7.72361 1.05279L12.7236 3.55279C12.893 3.63748 13 3.81061 13 4V10.5C13 10.6894 12.893 10.8625 12.7236 10.9472L7.72361 13.4472C7.58284 13.5176 7.41716 13.5176 7.27639 13.4472L2.27639 10.9472C2.107 10.8625 2 10.6894 2 10.5V4C2 3.81061 2.107 3.63748 2.27639 3.55279L7.27639 1.05279ZM3 4.80902L7 6.80902V12.191L3 10.191V4.80902ZM8 12.191L12 10.191V4.80902L8 6.80902V12.191ZM7.5 5.94098L11.382 4L7.5 2.05902L3.61803 4L7.5 5.94098Z"
    fill="currentColor"
  />
</svg>

<svg width="15" height="15" fill="none" xmlns="http://www.w3.org/2000/svg">
  <path
    fill-rule="evenodd"
    clip-rule="evenodd"
    d="M7.276 1.053a.5.5 0 01.448 0l5 2.5A.5.5 0 0113 4v6.5a.5.5 0 01-.276.447l-5 2.5a.5.5 0 01-.448 0l-5-2.5A.5.5 0 012 10.5V4a.5.5 0 01.276-.447l5-2.5zM3 4.809l4 2v5.382l-4-2V4.809zm5 7.382l4-2V4.809l-4 2v5.382zm-.5-6.25L11.382 4 7.5 2.059 3.618 4 7.5 5.941z"
    fill="currentColor"
  />
</svg>
